!!!COA:	Josquin des Prez
!!!CDT:	~1450-1521/08/27
!!!OTL@@LAT:	In exitu Israel de Egypto
!!!OTL2@@LAT:	Deus autem noster in celo
!!!OTL3@@LAT:	Dominus memor fuit nostri
!!!AGN:	Motet
!!!SCT:	NJE 17.4
!!!SCA:	New Josquin Edition 17.4
!!!voices:	4
**kern	**kern	**kern	**kern
*staff4	*staff3	*staff2	*staff1
*Ivox	*Ivox	*Ivox	*Ivox
*I"Bassus	*I"Tenor	*I"Altus	*I"Superius
*I'B	*I'T	*I'A	*I'S
*clefF4	*clefGv2	*clefGv2	*clefG2
*>[A,B,C]	*>[A,B,C]	*>[A,B,C]	*>[A,B,C]
*>A	*>A	*>A	*>A
*k[b-]	*k[b-]	*k[b-]	*k[b-]
*M2/1	*M2/1	*M2/1	*M2/1
*met(C|)	*met(C|)	*met(C|)	*met(C|)
=1-	=1-	=1-	=1-
0r	0r	0r	1a
.	.	.	[1a
=2	=2	=2	=2
0r	0r	1d	2a/]
.	.	.	2a/
.	.	[1d	1a
=3	=3	=3	=3
0r	0r	2d\]	2a/
.	.	2d\	2a/
.	.	1d	1a
=4	=4	=4	=4
0r	0r	2d\	1b-
.	.	2d\	.
.	.	1d	1a
=5	=5	=5	=5
0r	0r	1e-	1g
.	.	1d	1f
=6	=6	=6	=6
0r	0r	1c	2r
.	.	.	1g
.	.	1B-	.
.	.	.	2g/
=7	=7	=7	=7
0r	0r	2c\	1g
.	.	2c\	.
.	.	1c	1a
=8	=8	=8	=8
0r	0r	1d	1f
.	.	1B-	[1g
=9	=9	=9	=9
0r	0r	2c\	2g/]
.	.	2c\	2g/
.	.	1G	2g/
.	.	.	[2b-\
=10	=10	=10	=10
0r	0r	2B-\	4b-\]
.	.	.	4a/
.	.	2c\	1g
.	.	1A	.
.	.	.	2f#i/
=11	=11	=11	=11
1r	1.d	0G	1g
[1G	.	.	[1b-
.	2d\	.	.
=12	=12	=12	=12
2G\]	1d	1.g	2b-\]
2G\	.	.	2b-\
1G	1e-	.	1b-
.	.	2g\	.
=13	=13	=13	=13
1A	1c	1e	1cc
1F	[1d	1f	1a
=14	=14	=14	=14
1.G	2d\]	2r	1.b-
.	2d\	2B-\	.
.	1d	2.B-\	.
2G\	.	.	2b-\
.	.	4c\	.
=15	=15	=15	=15
1D	2r	2d\	2.a/
.	2.d\	2.f\	.
.	.	.	4g/
2F\	.	.	2a/
.	4c\	4e\	.
2G\	4B-\	[2d\	[2b-\
.	4A/	.	.
=16	=16	=16	=16
1E-i	1G	2d\]	4b-\]
.	.	.	4a/
.	.	2c\	1g
1D	1A	1d	.
.	.	.	2f#i/
=17	=17	=17	=17
0r	0G	1r	0g
.	.	1B-	.
=18	=18	=18	=18
0r	0r	1c	1r
.	.	1d	1f
=19	=19	=19	=19
0r	0r	1B-	1g
.	.	1c	1a
=20	=20	=20	=20
0r	0r	1d	1f
.	.	2r	1g
.	.	2B-\	.
=21	=21	=21	=21
0r	0r	2c\	2a/
.	.	2d\	2f/
.	.	2e-i\	2g/
.	.	2d\	2a/
=22	=22	=22	=22
0r	0r	2B-\	2b-\
.	.	2.d\	2a/
.	.	.	1f
.	.	4e\	.
.	.	[2f\	.
=23	=23	=23	=23
0r	0r	2f\]	1g
.	.	2e\	.
.	.	1f	2f/
.	.	.	[2cc\
=24	=24	=24	=24
0r	0r	1.c	2cc\]
.	.	.	2cc\
.	.	.	2cc\
.	.	2c\	2cc\
=25	=25	=25	=25
0r	0r	2c\	2cc\
.	.	2c\	1g
.	.	2c\	.
.	.	2G/	[2b-\
=26	=26	=26	=26
0r	0r	2.B-\	4b-\]
.	.	.	4a/
.	.	.	1g
.	.	4c\	.
.	.	1A	.
.	.	.	2f#i/
=27	=27	=27	=27
1r	0r	0G	1g
[1G	.	.	[1b-
=28	=28	=28	=28
2G\]	1.d	0r	2b-\]
2G\	.	.	2b-\
2G\	.	.	2b-\
2G\	2d\	.	2b-\
=29	=29	=29	=29
2G\	2d\	0r	2b-\
2D\	2d\	.	4f/
.	.	.	4g/
1F	2d\	.	4a/
.	.	.	4b-\
.	[2c\	.	[2a/
=30	=30	=30	=30
1E-i	4c\]	1r	2a/]
.	4B-\	.	.
.	2G/	.	1g
1D	1A	[1d	.
.	.	.	2f#i/
=31	=31	=31	=31
0r	0G	2d\]	0g
.	.	2d\	.
.	.	1e-i	.
=32	=32	=32	=32
1r	1B-	2d\	1r
.	.	1f	.
1D	1A	.	[1a
.	.	4e-i\	.
.	.	4d\	.
=33	=33	=33	=33
1F	1A	1c	2a/]
.	.	.	2a/
1G	4G/	1B-	1b-
.	4A/	.	.
.	4B-\	.	.
.	4G/	.	.
=34	=34	=34	=34
2F\	1A	1r	2a/
1A	.	.	1cc
.	1F	1c	.
4G\	.	.	4b-\
4F\	.	.	4a/
=35	=35	=35	=35
1E	1G	1c	1g
1D	2A/	1d	1f
.	2d\	.	.
=36	=36	=36	=36
1G	1d	1B-	2r
.	.	.	2g/
1C	1e	[1c	1g
=37	=37	=37	=37
1F	2r	2c\]	1a
.	2c\	2c\	.
2r	4f\	1d	2r
.	4e\	.	.
2D\	4d\	.	2a/
.	4c\	.	.
=38	=38	=38	=38
2G\	2d\	2B-\	2b-\
2C/	2e-i\	2c\	2g/
4F\	1c	1A	4a/
4G\	.	.	4b-\
4A\	.	.	4cc\
4F\	.	.	4a/
=39	=39	=39	=39
2G\	1B-	0G	2b-\
4B-\	.	.	4dd\
4A\	.	.	4cc\
4G\	[1d	.	4b-\
4F\	.	.	4a/
[2G\	.	.	[2b-\
=40	=40	=40	=40
2G\]	2d\]	2B-\	4b-\]
.	.	.	4a/
2C/	2e-i\	2c\	1g
1D	1d	1A	.
.	.	.	2f#i/
=41	=41	=41	=41
0GG	1r	[0G	[0g
.	[1d	.	.
=42	=42	=42	=42
1r	2d\]	0G]	0g]
.	2e-i\	.	.
1GG	1d	.	.
=43	=43	=43	=43
1G	0r	1r	0r
2r	.	1G	.
2G\	.	.	.
=44	=44	=44	=44
2G\	0r	1d	0r
2D\	.	.	.
1G	.	2r	.
.	.	2d\	.
=45	=45	=45	=45
2.F\	0r	2d\	0r
.	.	2A/	.
4E\	.	.	.
4D\	.	1d	.
4C/	.	.	.
2BB-/	.	.	.
=46	=46	=46	=46
1.F	0r	2c\	0r
.	.	4F/	.
.	.	4G/	.
.	.	4A/	.
.	.	4B-\	.
2E\	.	[2c\	.
=47	=47	=47	=47
2.D\	0r	2c\]	0r
.	.	1B-	.
4BB-/	.	.	.
2C/	.	.	.
2C/	.	2A/	.
=48	=48	=48	=48
1BB-	1r	2B-\	1r
.	.	2B-\	.
1F	2r	1c	1a
.	2f\	.	.
=49	=49	=49	=49
1G	2.d\	1B-	1b-
.	4e\	.	.
1F	1f	2r	1a
.	.	[2d\	.
=50	=50	=50	=50
1.G	2r	2d\]	2.b-\
.	1B-	2d\	.
.	.	.	4b-\
.	.	2d\	2b-\
2F\	2f\	2d\	[2a/
=51	=51	=51	=51
2G\	2d\	2B-\	4a/]
.	.	.	4g/
2C/	2e\	2c\	1g
2D\	[1d	1A	.
2D\	.	.	2f#i/
=52	=52	=52	=52
0GG	2d\]	1G	1g
.	2d\	.	.
.	1d	2r	[1b-
.	.	[2d\	.
=53	=53	=53	=53
1.G	2r	2d\]	2b-\]
.	1B-	2d\	2b-\
.	.	2d\	2b-\
2F\	2f\	2d\	[2a/
=54	=54	=54	=54
2G\	2d\	2B-\	4a/]
.	.	.	4g/
2C/	2e\	2c\	1g
2D\	[1d	1A	.
2D\	.	.	2f#i/
=55	=55	=55	=55
[0GG	2d\]	[0G	2g/
.	2d\	.	2dd\
.	2.d\	.	2b-\
.	.	.	[2dd\
.	4c\	.	.
=56	=56	=56	=56
0GG]	4B-\	0G]	4dd\]
.	4A/	.	4cc\
.	1G	.	1b-
.	4F/	.	4a/
.	4E/	.	4g/
=57	=57	=57	=57
0r	0D	1.A	[0f
.	.	2A/	.
=58	=58	=58	=58
1.D	0r	1A	0f_
.	.	1A	.
2D\	.	.	.
=59	=59	=59	=59
1D	1.d	2.F/	0f]
.	.	4G/	.
1D	.	1A	.
.	2d\	.	.
=60	=60	=60	=60
2.BB-/	1d	1B-	0r
4C/	.	.	.
1D	1d	1A	.
=61	=61	=61	=61
1E-i	2.B-\	1G	0r
.	4c\	.	.
1D	1d	1F	.
=62	=62	=62	=62
1C	1e-	1r	0r
1BB-	1d	1B-	.
=63	=63	=63	=63
1r	1c	2A/	0r
.	.	2F/	.
1E-i	1B-	1G	.
=64	=64	=64	=64
2D\	1r	1F	0r
2BB-/	.	.	.
1C	1e-i	1r	.
=65	=65	=65	=65
1BB-	2d\	1B-	0r
.	2B-\	.	.
1r	1c	2A/	.
.	.	2F/	.
=66	=66	=66	=66
1GG	1B-	1G	0r
1D	1A	1F	.
=67	=67	=67	=67
1D	1B-	1F	0r
1E	1B-	1G	.
=68	=68	=68	=68
1C	1c	1E	0r
1D	1A	1F	.
=69	=69	=69	=69
1.BB-	1B-	1D	0r
.	[1B-	1d	.
2GG/	.	.	.
=70	=70	=70	=70
[0GG	2B-\]	1.d	0r
.	2G/	.	.
.	1G	.	.
.	.	2B-\	.
=71	=71	=71	=71
0GG]	1r	0B-	0r
.	1G	.	.
=72	=72	=72	=72
0r	1g	0r	1r
.	2r	.	1g
.	[2g\	.	.
=73	=73	=73	=73
0r	2g\]	0r	1dd
.	2g\	.	.
.	1g	.	2dd\
.	.	.	[2dd\
=74	=74	=74	=74
0r	1.f	0r	2dd\]
.	.	.	2dd\
.	.	.	1dd
.	2d\	.	.
=75	=75	=75	=75
0r	2e\	0r	2cc\
.	2f\	.	2a/
.	2g\	.	2b-\
.	2e\	.	2cc\
=76	=76	=76	=76
1r	1d	0r	2dd\
.	.	.	2b-\
1D	2r	.	2a/
.	2d\	.	2f/
=77	=77	=77	=77
1E-i	2.B-\	1G	1g
.	4c\	.	.
1D	1d	1A	1f
=78	=78	=78	=78
1.BB-	1.f	2D/	2.dd\
.	.	1d	.
.	.	.	4cc\
.	.	.	2b-\
2C/	2e\	2c\	[2a/
=79	=79	=79	=79
2D\	2d\	2B-\	2a/]
2E-i\	2c\	2G/	1g
2D\	[1d	2A/	.
2D\	.	2A/	2f#i/
=80	=80	=80	=80
0GG	2d\]	0G	1g
.	2d\	.	.
.	1d	.	[1dd
=81	=81	=81	=81
1.BB-	2r	1.d	2dd\]
.	1f	.	2cc\
.	.	.	2b-\
2C/	2e\	2c\	[2a/
=82	=82	=82	=82
2D\	2d\	2B-\	2a/]
2E-i\	2c\	2G/	1g
2D\	[1d	2A/	.
2D\	.	2A/	2f#i/
=83	=83	=83	=83
[0GG	2d\]	[0G	1g
.	2d\	.	.
.	1d	.	1r
=84	=84	=84	=84
0GG]	2r	0G]	1d
.	1B-	.	.
.	.	.	1g
.	2B-\	.	.
=85	=85	=85	=85
0r	2c\	0r	2g/
.	2B-\	.	2g/
.	2c\	.	2g/
.	2G/	.	2g/
=86	=86	=86	=86
0r	1.B-	1d	1f
.	.	1g	1b-
.	2G/	.	.
=87	=87	=87	=87
0r	0G	2g\	2b-\
.	.	2g\	2b-\
.	.	2g\	1b-
.	.	2g\	.
=88	=88	=88	=88
1D	1r	1f	2a/
.	.	.	2f/
1G	1G	1B-	2g/
.	.	.	[2b-\
=89	=89	=89	=89
2G\	1d	2B-\	4b-\]
.	.	.	4a/
2G\	.	2B-\	4g/
.	.	.	4f/
2G\	2d\	1B-	1g
2G\	2d\	.	.
=90	=90	=90	=90
2F\	2.d\	2A/	1a
2D\	.	2F/	.
.	4d\	.	.
2E\	2c\	2G/	1r
[2F\	2d\	[2A/	.
=91	=91	=91	=91
4F\]	2c\	4A/]	0r
4E\	.	4G/	.
4D\	2.d\	4F/	.
4C/	.	4E/	.
2BB-/	.	1D	.
.	4c\	.	.
2D\	[2B-\	.	.
=92	=92	=92	=92
1C	2B-\]	1E	0r
.	2A/	.	.
1BB-	1B-	1F	.
=93	=93	=93	=93
2r	2r	2r	0r
2BB-/	2F/	2D/	.
2BB-/	2G/	2D/	.
2C/	2A/	2E/	.
=94	=94	=94	=94
2.D\	2.B-\	2.F/	0r
4C/	4A/	4E/	.
2BB-/	2G/	2D/	.
2AA/	2F#i/	2C/	.
=95	=95	=95	=95
1GG	2G/	2D/	2r
.	2G/	2d\	2g/
1r	2B-\	2d\	2g/
.	2c\	2e\	2a/
=96	=96	=96	=96
0r	2.d\	2.f\	2.b-\
.	4c\	4e\	4a/
.	2B-\	2d\	2g/
.	2A/	2c\	2f#i/
=97	=97	=97	=97
0r	0G	1d	1g
.	.	2r	1r
.	.	[2d\	.
=98	=98	=98	=98
1GG	2r	2d\]	1b-
.	1G	2d\	.
1G	.	2d\	1b-
.	2G/	2e\	.
=99	=99	=99	=99
2F\	2A/	1f	2a/
2D\	2B-\	.	2f/
1E-i	1G	1B-	1g
=100	=100	=100	=100
2D\	2A/	2r	2f/
2BB-/	2B-\	2d\	2d/
1E-i	2G/	2B-\	1g
.	2E-/	2c\	.
=101	=101	=101	=101
2D\	2.F/	1d	2f/
2BB-/	.	.	2d/
.	4G/	.	.
1C	1E-i	2.G/	1e-i
.	.	4A/	.
=102	=102	=102	=102
2BB-/	2F/	2B-\	2d/
2GG/	2G/	2B-\	2d/
1C	1G	1c	1e-i
=103	=103	=103	=103
2BB-/	2G/	2d\	2d/
2GG/	2G/	2B-\	2d/
1C	2G/	2c\	2e-i/
.	2G/	2G/	2e-i/
=104	=104	=104	=104
2BB-/	1G	1B-	2d/
2GG/	.	.	2.g/
1D	1D	1A	.
.	.	.	4f#i/
.	.	.	4f#i/
.	.	.	4e/
=105	=105	=105	=105
0GG	1d	0B-	1g
.	1r	.	2r
.	.	.	2g/
=106	=106	=106	=106
0r	1d	0r	2a/
.	.	.	2a/
.	2d\	.	[1b-
.	2d\	.	.
=107	=107	=107	=107
0r	1.e-	0r	2b-\]
.	.	.	2b-\
.	.	.	2b-\
.	2e-\	.	[2cc\
=108	=108	=108	=108
0r	2d\	0r	2cc\]
.	2B-\	.	1b-
.	1c	.	.
.	.	.	2a/
=109	=109	=109	=109
1GG	0B-	1r	0b-
2GG/	.	1G	.
2GG/	.	.	.
=110	=110	=110	=110
1.C	0r	2G/	0r
.	.	2G/	.
.	.	2G/	.
2C/	.	2E/	.
=111	=111	=111	=111
2BB-/	0r	2F/	0r
2GG/	.	2G/	.
1AA	.	2.E/	.
.	.	4F/	.
=112	=112	=112	=112
0GG	1r	0G	2r
.	.	.	2dd\
.	2d\	.	2.dd\
.	[2g\	.	.
.	.	.	4dd\
=113	=113	=113	=113
0r	4g\]	0r	2b-\
.	4g\	.	.
.	2e\	.	2g/
.	2c\	.	2.cc\
.	[2f\	.	.
.	.	.	4b-\
=114	=114	=114	=114
0r	4f\]	0r	4a/
.	4e\	.	4g/
.	4d\	.	1a
.	4c\	.	.
.	2d\	.	.
.	2G/	.	[2b-\
=115	=115	=115	=115
0r	2B-\	0r	4b-\]
.	.	.	4a/
.	2c\	.	1g
.	1A	.	.
.	.	.	2f#i/
=116	=116	=116	=116
1r	0G	2r	0g
.	.	2d\	.
2GG/	.	2.d\	.
[2G\	.	.	.
.	.	4d\	.
=117	=117	=117	=117
4G\]	0r	2B-\	0r
4G\	.	.	.
2E\	.	2G/	.
2C/	.	2.c\	.
[2F\	.	.	.
.	.	4B-\	.
=118	=118	=118	=118
4F\]	0r	4A/	0r
4E\	.	4G/	.
4D\	.	1A	.
4C/	.	.	.
2D\	.	.	.
2GG/	.	[2B-\	.
=119	=119	=119	=119
2BB-/	0r	4B-\]	0r
.	.	4A/	.
2C/	.	1G	.
1AA	.	.	.
.	.	2F#i/	.
=120	=120	=120	=120
[0GG	0r	0G	1g
.	.	.	2g/
.	.	.	2g/
=121	=121	=121	=121
0GG]	1G	0r	2b-\
.	.	.	2g/
.	2G/	.	2.b-\
.	2G/	.	.
.	.	.	4cc\
=122	=122	=122	=122
0r	2B-\	1G	0dd
.	2G/	.	.
.	2.B-\	2G/	.
.	.	2G/	.
.	4c\	.	.
=123	=123	=123	=123
1GG	0d	2B-\	0r
.	.	2G/	.
2GG/	.	2.B-\	.
2GG/	.	.	.
.	.	4c\	.
=124	=124	=124	=124
2BB-/	0r	2d\	0r
2GG/	.	2d\	.
2BB-/	.	2d\	.
2C/	.	2e-i\	.
=125	=125	=125	=125
2D\	0r	2d\	0r
2D\	.	1B-	.
2D\	.	.	.
2E-i\	.	[2c\	.
=126	=126	=126	=126
2D\	0r	4c\]	1r
.	.	4B-\	.
2BB-/	.	1B-	.
1C	.	.	2r
.	.	2A/	2cc\
=127	=127	=127	=127
2BB-/	2r	2B-\	2dd\
2B-\	2d\	2B-\	2dd\
2B-\	2d\	2d\	2b-\
2A\	2e-i\	2c\	[2cc\
=128	=128	=128	=128
2B-\	2d\	2d\	2cc\]
2G\	2B-\	2e\	1b-
1F	1c	1f	.
.	.	.	2a/
=129	=129	=129	=129
0BB-	1B-	[0d	0b-
.	2r	.	.
.	2B-\	.	.
=130	=130	=130	=130
2r	2B-\	0d]	0r
2D\	2B-\	.	.
2D\	2A/	.	.
2D\	2A/	.	.
=131	=131	=131	=131
2D\	2.F/	0r	1r
2D\	.	.	.
.	4D/	.	.
2.BB-/	1D	.	2r
.	.	.	2b-\
4GG/	.	.	.
=132	=132	=132	=132
1GG	0r	2r	2b-\
.	.	2d\	2b-\
1r	.	2d\	2a/
.	.	2d\	2a/
=133	=133	=133	=133
0r	0r	2d\	2.f/
.	.	2d\	.
.	.	.	4d/
.	.	2.B-\	1d
.	.	4G/	.
=134	=134	=134	=134
0r	2r	1G	2g/
.	2G/	.	2b-\
.	2B-\	1r	2g/
.	2G/	.	[2dd\
=135	=135	=135	=135
0r	2.g\	0r	4dd\]
.	.	.	4cc\
.	.	.	4b-\
.	4f\	.	4a/
.	4e\	.	2b-\
.	4d\	.	.
.	[2c\	.	4cc\
.	.	.	4b-\
=136	=136	=136	=136
0r	4c\]	0r	4a/
.	4B-\	.	4g/
.	2G/	.	1g
.	1A	.	.
.	.	.	2f#i/
=137	=137	=137	=137
2r	1G	2G/	1g
2GG/	.	2B-\	.
2BB-/	1r	2G/	1r
2GG/	.	[2d\	.
=138	=138	=138	=138
2.G\	0r	4d\]	0r
.	.	4c\	.
.	.	4B-\	.
4F\	.	4A/	.
4E\	.	2B-\	.
4D\	.	.	.
[2C/	.	4c\	.
.	.	4B-\	.
=139	=139	=139	=139
4C/]	0r	4A/	0r
4BB-/	.	4G/	.
2GG/	.	1G	.
1AA	.	.	.
.	.	2F#i/	.
=140	=140	=140	=140
0GG	1r	1G	2r
.	.	.	2g/
.	2G/	2r	2b-\
.	2B-\	2G/	2g/
=141	=141	=141	=141
1r	2G/	2B-\	2.dd\
.	2.d\	2G/	.
.	.	.	4cc\
1GG	.	1d	4b-\
.	4c\	.	4a/
.	4B-\	.	[2g/
.	4A/	.	.
=142	=142	=142	=142
2C/	2G/	2c\	4g/]
.	.	.	4f/
2BB-/	2G/	2d\	2d/
1C	2.E-i/	2.G/	1e-i
.	4F/	4A/	.
=143	=143	=143	=143
0GGl	0Gl	0B-l	0dl
!!LO:LB:i:g=z
=144||	=144||	=144||	=144||
*>B	*>B	*>B	*>B
!!section: Secunda pars
!!!OMD: Secunda pars: Deus autem noster in celo
1BB-	0r	0r	0r
1C	.	.	.
=145	=145	=145	=145
1D	1F	1r	0r
1GG	1G	1B-	.
=146	=146	=146	=146
1r	1A	1c	1r
2r	1B-	1d	1f
2D\	.	.	.
=147	=147	=147	=147
2E\	0r	1G	1g
2G\	.	.	.
1F	.	2r	1a
.	.	2c\	.
=148	=148	=148	=148
1BB-	1r	2d\	1b-
.	.	2d\	.
2r	1B-	1d	1f
2D\	.	.	.
=149	=149	=149	=149
2E\	2B-\	1G	2g/
2G\	2B-\	.	2g/
1F	1c	1r	1a
=150	=150	=150	=150
1BB-	0B-	1r	0b-
[1E-	.	[1G	.
=151	=151	=151	=151
2E-\]	1.B-	2G/]	0r
2E-i\	.	2G/	.
2E-i\	.	2G/	.
2E-i\	2B-\	2G/	.
=152	=152	=152	=152
2D\	2B-\	2F/	0r
2BB-/	2B-\	2D/	.
2C/	2A/	2E/	.
2D\	2F/	2F/	.
=153	=153	=153	=153
2GG/	2G/	2D/	0r
2D\	2A/	2F/	.
2GG/	2B-\	2E/	.
[2D\	2B-\	[2F/	.
=154	=154	=154	=154
4D\]	2A/	4F/]	0r
4C/	.	4E/	.
2BB-/	2G/	1D	.
1AA	1F#i	.	.
.	.	2C/	.
=155	=155	=155	=155
1GG	0G	1D	1r
2r	.	2r	1b-
2GG/	.	2d\	.
=156	=156	=156	=156
2G\	0r	2d\	2b-\
2F\	.	2d\	2a/
1G	.	2.d\	1b-
.	.	4e\	.
=157	=157	=157	=157
0D	0r	2.f\	0a
.	.	4e\	.
.	.	4d\	.
.	.	4c\	.
.	.	[2d\	.
=158	=158	=158	=158
1.D	1.F	2d\]	0r
.	.	4c\	.
.	.	4B-\	.
.	.	1A	.
2E\	2G/	.	.
=159	=159	=159	=159
1F	1A	1D	0r
2BB-/	1B-	1d	.
2D\	.	.	.
=160	=160	=160	=160
2E\	2G/	0r	0r
2F\	2A/	.	.
2D\	2B-\	.	.
2E\	2G/	.	.
=161	=161	=161	=161
2F\	2A/	0r	0r
2D\	2B-\	.	.
2E\	2G/	.	.
2F\	2A/	.	.
=162	=162	=162	=162
2D\	2B-\	0r	0r
2E\	2G/	.	.
2F\	2A/	.	.
2D\	2B-\	.	.
=163	=163	=163	=163
2.E\	1G	0r	0r
4G\	.	.	.
1F	1A	.	.
=164	=164	=164	=164
0BB-	0B-	1r	1r
.	.	[1d	[1f
=165	=165	=165	=165
0r	0r	2d\]	2f/]
.	.	2e\	2g/
.	.	1f	1a
=166	=166	=166	=166
0r	0r	2B-\	1b-
.	.	2d\	.
.	.	2e\	2g/
.	.	2f\	2a/
=167	=167	=167	=167
0r	0r	2d\	2b-\
.	.	2e\	2g/
.	.	2f\	2a/
.	.	2d\	2b-\
=168	=168	=168	=168
0r	0r	2e\	2g/
.	.	2f\	2a/
.	.	2d\	2b-\
.	.	2e\	2g/
=169	=169	=169	=169
0r	0r	2f\	2a/
.	.	2d\	2b-\
.	.	1e	1g
=170	=170	=170	=170
0r	1r	1f	1a
.	1d	1r	1b-
=171	=171	=171	=171
1BB-	2d\	1r	2b-\
.	2d\	.	2b-\
2BB-/	2d\	1f	2b-\
2BB-/	2d\	.	2b-\
=172	=172	=172	=172
1F	2c\	2f\	2a/
.	2A/	2f\	2a/
1D	2B-\	2.f\	2f/
.	2F/	.	2f/
.	.	4f\	.
=173	=173	=173	=173
1C	2r	1e	0g
.	2.c\	.	.
1E-	.	2c\	.
.	4B-\	.	.
.	2G/	2c\	.
=174	=174	=174	=174
1.D	2.B-\	0d	1r
.	4c\	.	.
.	1A	.	1f
2D\	.	.	.
=175	=175	=175	=175
0GG	0G	1r	1g
.	.	1B-	1b-
=176	=176	=176	=176
0r	0r	1c	2a/
.	.	.	2.cc\
.	.	1e-i	.
.	.	.	4b-\
.	.	.	4a/
.	.	.	4g/
=177	=177	=177	=177
0r	0r	2d\	4f/
.	.	.	4g/
.	.	2.f\	4a/
.	.	.	4b-\
.	.	.	2cc\
.	.	4e-i\	.
.	.	4d\	[2dd\
.	.	4c\	.
=178	=178	=178	=178
0r	0r	2B-\	4dd\]
.	.	.	4cc\
.	.	2d\	1b-
.	.	1c	.
.	.	.	2a/
=179	=179	=179	=179
0r	0r	1B-	2b-\
.	.	.	2f/
.	.	2r	2g/
.	.	2c\	2a/
=180	=180	=180	=180
0r	0r	2d\	1b-
.	.	2e\	.
.	.	1f	1a
=181	=181	=181	=181
0r	0r	1e	1cc
.	.	1d	2b-\
.	.	.	[2a/
=182	=182	=182	=182
0r	1r	2c\	2a/]
.	.	2B-\	1g
.	1c	1A	.
.	.	.	2f#i/
=183	=183	=183	=183
1r	1d	0G	0g
1C	1e	.	.
=184	=184	=184	=184
1D	1f	1F	0r
1E	1r	1G	.
=185	=185	=185	=185
1F	1c	1A	0r
1F	1c	1A	.
=186	=186	=186	=186
1F	1.d	2A/	0r
.	.	2A/	.
[1G	.	[1B-	.
.	2d\	.	.
=187	=187	=187	=187
2G\]	1e	2B-\]	0r
2G\	.	2B-\	.
1A	1r	1c	.
=188	=188	=188	=188
1r	1c	1r	0r
1F	1d	1A	.
=189	=189	=189	=189
1G	1d	1B-	0r
1G	[1e	1B-	.
=190	=190	=190	=190
1A	1e]	1c	0r
1A	[1f	1c	.
=191	=191	=191	=191
1.B-	1f]	1.d	0r
.	1f	.	.
2A\	.	2c\	.
=192	=192	=192	=192
2G\	2e\	2B-\	0r
2F\	2d\	2A/	.
1E	1c#i	1G	.
=193	=193	=193	=193
[0D	0d	0A	1r
.	.	.	1a
=194	=194	=194	=194
0D]	1r	0r	1b-
.	1d	.	1a
=195	=195	=195	=195
0r	1e	0r	1g
.	1d	.	2r
.	.	.	2f/
=196	=196	=196	=196
0r	1c	0r	2g/
.	.	.	2a/
.	2r	.	1b-
.	2B-\	.	.
=197	=197	=197	=197
0r	2c\	1r	0a
.	2d\	.	.
.	1c	1A	.
=198	=198	=198	=198
1r	1d	1B-	1.f
1D	1d	1A	.
.	.	.	2f/
=199	=199	=199	=199
1E-	0B-	1G	1g
1D	.	2r	1f
.	.	2F/	.
=200	=200	=200	=200
1C	1c	2G/	1r
.	.	2A/	.
2r	1d	1B-	2r
2BB-/	.	.	2d/
=201	=201	=201	=201
2C/	2r	1A	2e/
2D\	2d\	.	2f/
1E-i	2B-\	1G	1g
.	2G/	.	.
=202	=202	=202	=202
1D	2.A/	2r	1f
.	.	2F/	.
.	4B-\	.	.
1C	1c	1G	1e
=203	=203	=203	=203
2r	1d	1B-	2r
2BB-/	.	.	2d/
1C	2r	1A	1e
.	2c\	.	.
=204	=204	=204	=204
1E-i	2B-\	1r	1g
.	2G/	.	.
1D	2A/	2r	2f/
.	2D/	2F/	2a/
=205	=205	=205	=205
0r	2G/	2G/	2b-\
.	2F/	2A/	2a/
.	2D/	2B-\	2f/
.	2E/	2G/	[2g/
=206	=206	=206	=206
1r	1D	1A	4g/]
.	.	.	4f#i/
.	.	.	4f#i/
.	.	.	4e/
2r	1d	1G	1g
2BB-/	.	.	.
=207	=207	=207	=207
2C/	1r	2r	2r
2D\	.	2F/	2a/
2GG/	2d\	2G/	2b-\
[2D\	[2d\	2A/	2a/
=208	=208	=208	=208
4D\]	4d\]	2B-\	2f/
4BB-/	4d\	.	.
2E-i\	2c\	2G/	1g
1D	1d	1A	.
.	.	.	2f#i/
=209	=209	=209	=209
0GG	0B-	1G	1g
.	.	1r	1r
=210	=210	=210	=210
0r	0r	1f	1a
.	.	2f\	2a/
.	.	2f\	2a/
=211	=211	=211	=211
0r	0r	2g\	2b-\
.	.	2f\	2a/
.	.	1g	1b-
=212	=212	=212	=212
1D	1A	1.f	0a
2D\	2A/	.	.
2D\	2A/	2d\	.
=213	=213	=213	=213
2G\	2B-\	1d	0r
2F\	2A/	.	.
1G	1B-	1r	.
=214	=214	=214	=214
1D	1A	1f	1a
1r	1r	1g	1b-
=215	=215	=215	=215
0r	0r	2f\	2a/
.	.	2f\	2a/
.	.	1g	1b-
=216	=216	=216	=216
1D	1A	2.f\	1a
.	.	4d\	.
1G	1B-	1d	1r
=217	=217	=217	=217
2F\	2A/	0r	0r
2F\	2A/	.	.
1G	1B-	.	.
=218	=218	=218	=218
0D	0A	1r	1r
.	.	1f	1a
=219	=219	=219	=219
0r	0r	1g	1b-
.	.	1f	1a
=220	=220	=220	=220
0r	0r	2r	2r
.	.	2f\	2a/
.	.	2f\	2a/
.	.	2f\	2a/
=221	=221	=221	=221
0r	1r	2e\	2g/
.	.	2d\	2f/
.	1A	1c#i	1e
=222	=222	=222	=222
1r	1D	1d	1d
1GG	1G	2r	1b-
.	.	2d\	.
=223	=223	=223	=223
1C	2r	1e-i	1cc
.	2G/	.	.
1GG	2G/	1d	1b-
.	2G/	.	.
=224	=224	=224	=224
2r	2.B-\	2r	2r
2G\	.	2d\	2b-\
.	4c\	.	.
2.B-\	4d\	2d\	2b-\
.	4e\	.	.
.	[2f\	2d\	2b-\
4B-\	.	.	.
=225	=225	=225	=225
2F\	2f\]	2c\	2a/
2G\	2.d\	2B-\	2g/
1D	.	1A	1f#i
.	4c\	.	.
.	2d\	.	.
=226	=226	=226	=226
0GG	2B-\	0G	0g
.	2G/	.	.
.	1B-	.	.
=227	=227	=227	=227
1D	1A	0r	1r
2D\	2r	.	1f
2D\	2d\	.	.
=228	=228	=228	=228
1D	2d\	1A	2f/
.	2d\	.	2f/
1D	2d\	2A/	2f/
.	[2f\	2A/	[2a/
=229	=229	=229	=229
0r	2f\]	1A	2a/]
.	4e\	.	4g/
.	4d\	.	4f/
.	1c	1A	1e
=230	=230	=230	=230
1D	0r	1r	0r
1D	.	1A	.
=231	=231	=231	=231
2C/	0r	1A	0r
2D\	.	.	.
[1E-	.	2G/	.
.	.	2G/	.
=232	=232	=232	=232
2E-\]	2r	1.B-	1r
2D\	2d\	.	.
1D	1d	.	2r
.	.	2A/	2a/
=233	=233	=233	=233
0r	2c\	1A	1a
.	2d\	.	.
.	[1e-i	1r	2g/
.	.	.	2g/
=234	=234	=234	=234
0r	2e-\]	0r	1.b-
.	2d\	.	.
.	1d	.	.
.	.	.	2a/
=235	=235	=235	=235
1D	0r	1r	1a
2D\	.	1A	1r
2C/	.	.	.
=236	=236	=236	=236
1D	0r	1A	0r
1E-i	.	2G/	.
.	.	2G/	.
=237	=237	=237	=237
0D	1d	1B-	1r
.	2d\	1A	2r
.	2d\	.	2a/
=238	=238	=238	=238
0r	1c	0r	2a/
.	.	.	2a/
.	1e-i	.	1g
=239	=239	=239	=239
0r	0d	1r	1b-
.	.	2r	1a
.	.	2D/	.
=240	=240	=240	=240
2r	1r	2D/	0r
2D\	.	2D/	.
2D\	2r	2.F/	.
2D\	2d\	.	.
.	.	4D/	.
=241	=241	=241	=241
2.F\	2d\	1D	1r
.	2d\	.	.
4E\	.	.	.
2D\	1f	2r	2r
2D\	.	2D/	2f/
=242	=242	=242	=242
2C/	2e\	2E/	1g
2BB-/	2d\	1G	.
1AA	1c	.	1a
.	.	2F/	.
=243	=243	=243	=243
0r	2.B-\	4G/	1.b-
.	.	4A/	.
.	.	4B-\	.
.	4A/	4c\	.
.	2G/	4d\	.
.	.	4e\	.
.	2F/	2f\	2a/
=244	=244	=244	=244
0r	2c\	2e\	2g/
.	2d\	1d	2f/
.	1A	.	1e
.	.	2c#i\	.
=245	=245	=245	=245
1.D	2r	0d	2r
.	2A/	.	1f
.	2A/	.	.
2D\	[2B-\	.	2f/
=246	=246	=246	=246
1GG	2B-\]	0r	1g
.	4A/	.	.
.	4G/	.	.
1D	1A	.	1f
=247	=247	=247	=247
0r	0r	1.d	2r
.	.	.	2a/
.	.	.	2a/
.	.	2d\	[2b-\
=248	=248	=248	=248
0r	0r	1G	2b-\]
.	.	.	4a/
.	.	.	4g/
.	.	1d	1a
=249	=249	=249	=249
1D	1A	2r	2r
.	.	2d\	2f/
1G	1B-	1d	1g
=250	=250	=250	=250
2F\	2A/	2d\	2a/
2D\	2A/	2d\	2f/
[1G	[1B-	[1e	[1g
=251	=251	=251	=251
2G\]	2B-\]	2e\]	2g/]
2D\	2A/	2d\	2f/
1D	1A	1d	1f
=252	=252	=252	=252
2r	0r	2r	0r
2B-\	.	2d\	.
2A\	.	2f\	.
[2G\	.	2e\	.
=253	=253	=253	=253
4G\]	0r	1d	0r
4F\	.	.	.
2D\	.	.	.
1E	.	1c#i	.
=254	=254	=254	=254
1D	2r	1d	2r
.	2f\	.	2a/
1r	2e\	1r	2cc\
.	[2d\	.	2b-\
=255	=255	=255	=255
0r	4d\]	0r	1a
.	4c\	.	.
.	2A/	.	.
.	1B-	.	1g
=256	=256	=256	=256
2r	2A/	2r	2a/
2D\	2A/	2d\	2f/
2E-\	2G/	2B-\	2g/
2C/	2A/	2c\	2e/
=257	=257	=257	=257
2D\	2F/	2A/	2f/
2BB-/	2G/	2B-\	2d/
2C/	2E/	2G/	2e/
2D\	2D/	2F/	2f/
=258	=258	=258	=258
2GG/	2d\	2B-\	2g/
2D\	2d\	2A/	2f/
2E-i\	2B-\	2G/	2g/
2C/	2c\	2A/	2e/
=259	=259	=259	=259
2D\	2A/	2F/	2f/
2BB-/	2B-\	2G/	2d/
2C/	2G/	2E/	2e/
2D\	2F/	2D/	2f/
=260	=260	=260	=260
0GG	2.B-\	1d	0g
.	4G/	.	.
.	1G	2r	.
.	.	2g\	.
=261	=261	=261	=261
0r	0r	2g\	2r
.	.	2f\	2dd\
.	.	2g\	2dd\
.	.	2e\	2cc\
=262	=262	=262	=262
1r	0r	0d	2dd\
.	.	.	2b-\
2r	.	.	1a
2D\	.	.	.
=263	=263	=263	=263
2G\	2r	0r	0r
2F\	2d\	.	.
2G\	2d\	.	.
2E\	2c\	.	.
=264	=264	=264	=264
0D	2d\	2r	0r
.	2B-\	2f\	.
.	1A	2f\	.
.	.	2f\	.
=265	=265	=265	=265
2r	0r	2.g\	2r
2G\	.	.	2b-\
.	.	4f\	.
2G\	.	2e\	2b-\
2G\	.	2d\	2b-\
=266	=266	=266	=266
2.A\	2r	1c	2.cc\
.	2c\	.	.
4G\	.	.	4b-\
2F\	2c\	1r	2a/
2E\	2c\	.	2g/
=267	=267	=267	=267
0D	2.d\	0r	0f
.	4c\	.	.
.	2B-\	.	.
.	2A/	.	.
=268	=268	=268	=268
2r	2G/	0r	0r
2GG/	2G/	.	.
2C/	2G/	.	.
2BB-/	2G/	.	.
=269	=269	=269	=269
1C	1E	0r	0r
1AA	1F	.	.
=270	=270	=270	=270
0GG	0G	2r	2r
.	.	2B-\	2g/
.	.	2B-\	2g/
.	.	2B-\	2g/
=271	=271	=271	=271
0r	0r	1c	1e
.	.	1A	1f
=272	=272	=272	=272
2r	2r	2G/	1g
2G\	2d\	2B-\	.
2G\	2e\	2B-\	1r
2A\	2f\	2c\	.
=273	=273	=273	=273
1.B-	1.g	1.d	0r
2A\	2f\	2c\	.
=274	=274	=274	=274
2G\	2e\	2B-\	0r
2F\	2d\	2A/	.
1E	1c#i	1G	.
=275	=275	=275	=275
1D	2r	1A	2r
.	2d\	.	2a/
1r	2d\	1r	2b-\
.	2e\	.	2cc\
=276	=276	=276	=276
0r	1.f	1r	1.dd
.	.	2r	.
.	2e\	2A/	2cc\
=277	=277	=277	=277
2r	2d\	2B-\	2b-\
2AA/	2c\	2c\	2a/
2BB-/	1B-	[1d	1g
2GG/	.	.	.
=278	=278	=278	=278
1.D	[0Al	2d\]	1f
.	.	4c\	.
.	.	4B-\	.
.	.	2A/	2r
2AA/	.	2c\	2e/
=279	=279	=279	=279
2D\	0A_	2d\	2f/
2C/	.	2e\	2e/
1D	.	1f	1d
=280	=280	=280	=280
0AAl	0A]	0el	0cl
!!LO:LB:i:g=z
=281||	=281||	=281||	=281||
*>C	*>C	*>C	*>C
!!section: Tertia pars
!!!OMD: Tertia pars: Dominus memor fuit nostri
1D	0r	0r	0r
2D\	.	.	.
2D\	.	.	.
=282	=282	=282	=282
1GG	0r	1d	0r
1D	.	2d\	.
.	.	2d\	.
=283	=283	=283	=283
1E	0r	1G	0r
2D\	.	[1d	.
[2F\	.	.	.
=284	=284	=284	=284
2F\]	0r	1d]	0r
4E\	.	.	.
4D\	.	.	.
1C	.	1e	.
=285	=285	=285	=285
0BB-	0r	2d\	0r
.	.	1f	.
.	.	4e\	.
.	.	4d\	.
=286	=286	=286	=286
2r	0r	1c	0r
2F\	.	.	.
2G\	.	1B-	.
[2B-\	.	.	.
=287	=287	=287	=287
2B-\]	0r	1r	0r
4A\	.	.	.
4G\	.	.	.
2A\	.	1c	.
[2F\	.	.	.
=288	=288	=288	=288
2F\]	0r	2c\	0r
4E\	.	2c\	.
4D\	.	.	.
2E\	.	1c	.
4C/	.	.	.
4D\	.	.	.
=289	=289	=289	=289
4E\	0r	1G	0r
4F\	.	.	.
2G\	.	.	.
2GG/	.	1B-	.
[2G\	.	.	.
=290	=290	=290	=290
2G\]	0r	1A	0r
2F\	.	.	.
2G\	.	1G	.
2B-\	.	.	.
=291	=291	=291	=291
2A\	0r	1c	0r
1F	.	.	.
.	.	2c\	.
4E\	.	2c\	.
4D\	.	.	.
=292	=292	=292	=292
2E\	0r	1c	0r
4C/	.	.	.
4D\	.	.	.
4E\	.	2.G/	.
4F\	.	.	.
2G\	.	.	.
.	.	4A/	.
=293	=293	=293	=293
4GG/	0r	4B-\	0r
4AA/	.	4c\	.
4BB-/	.	1d	.
4C/	.	.	.
2D\	.	.	.
2E\	.	4c\	.
.	.	4B-\	.
=294	=294	=294	=294
2F\	0r	2A/	0r
1G	.	2G/	.
.	.	1A	.
2F#i\	.	.	.
=295	=295	=295	=295
*M3/1	*M3/1	*M3/1	*M3/1
*met(3)	*met()	*met(3)	*met()
!!primary-mensuration: met(3)
!	!LO:N:vis=0	!	!LO:N:vis=0
0G	0.r	0.G	0.r
1r	.	.	.
=296	=296	=296	=296
*	*M3/1	*	*
*	*met(3)	*	*
!	!	!	!LO:N:vis=0
1G	1B-	1r	0.r
1G	1B-	1r	.
1E	1c	1G	.
=297	=297	=297	=297
!	!	!	!LO:N:vis=0
1D	1d	1A	0.r
1.G	1.d	0B-	.
2G\	2d\	.	.
=298	=298	=298	=298
!	!	!	!LO:N:vis=0
1F	1d	1A	0.r
1G	1e	1r	.
1E	1c	1G	.
=299	=299	=299	=299
*	*	*	*M3/1
*	*	*	*met(3)
0D	0d	1A	1f
.	.	0B-	1f
1r	1r	.	1g
=300	=300	=300	=300
0.r	0.r	1A	1a
.	.	1.d	1.b-
.	.	2d\	2b-\
=301	=301	=301	=301
0.r	0.r	1c	1a
.	.	1d	1b-
.	.	1B-	1g
=302	=302	=302	=302
1r	1r	0A	0a
1r	1r	.	.
1D	1f	1d	1a
=303	=303	=303	=303
1D	1f	1d	1a
0G	0g	0d	0b-
=304	=304	=304	=304
1D	1f	1d	1a
1.G	1.d	1.B-	1.b-
2G\	2d\	2B-\	2b-\
=305	=305	=305	=305
1F	1f	1c	1a
0C	0e	0c	0g
=306	=306	=306	=306
0D	0d	0A	0f
1r	1r	1r	1r
=307	=307	=307	=307
1BB-	1d	1B-	1dd
1BB-	1d	1B-	1dd
1C	1e	1G	1cc
=308	=308	=308	=308
1D	1f	1F	1a
1BB-	1d	1B-	1dd
1C	1e	1A	1cc
=309	=309	=309	=309
1D	1f	1F	1a
1GG	1d	1G	1b-
1G	1e	1E	1g
=310	=310	=310	=310
1F	1f	1D	1a
1G	1d	1B-	1b-
1E	1e	1c	1g
=311	=311	=311	=311
*M2/1	*M2/1	*M2/1	*M2/1
*met(C|)	*met(C|)	*met(C|)	*met(C|)
0D	0f	0d	2.f/
.	.	.	4g/
.	.	.	1a
=312	=312	=312	=312
2r	0r	1B-	0r
2GG/	.	.	.
2GG/	.	2B-\	.
2G\	.	2B-\	.
=313	=313	=313	=313
2E\	0r	1c	0r
2C/	.	.	.
[1D	.	1A	.
=314	=314	=314	=314
2D\]	0r	1.B-	0r
2GG/	.	.	.
1GG	.	.	.
.	.	2G/	.
=315	=315	=315	=315
0r	2r	0G	1b-
.	2d\	.	.
.	2g\	.	2b-\
.	2g\	.	2b-\
=316	=316	=316	=316
0r	2e\	0r	1cc
.	2c\	.	.
.	[1d	.	1a
=317	=317	=317	=317
*M3/3%2	*	*M3/3%2	*
*met(3)	*	*met(3)	*
3%2G	2d\]	3%2B-	1.b-
.	2G/	.	.
3%2.G	.	3%2.B-	.
.	1G	.	.
.	.	.	2g/
3G\	.	3B-\	.
=318	=318	=318	=318
*M3/1	*M3/1	*M3/1	*M3/1
*met()	*met(3)	*met()	*met(3)
!!primary-mensuration: met(3)
1G	0.r	1B-	0g
1.C	.	1.c	.
.	.	.	1r
2C/	.	2c\	.
=319	=319	=319	=319
1C	0.r	1c	0.r
1D	.	1F	.
1BB-	.	1G	.
=320	=320	=320	=320
0AA	1e	0A	1cc
.	1.e	.	1.cc
1r	.	1r	.
.	2e\	.	2cc\
=321	=321	=321	=321
0.r	1e	0.r	1cc
.	1.f	.	1.a
.	2f\	.	2a/
=322	=322	=322	=322
0.r	1f	0.r	1a
.	1g	.	1b-
.	1e	.	1g
=323	=323	=323	=323
0D	1f	0F	1a
.	1d	.	1f
1C	1e	1c	1g
=324	=324	=324	=324
1F	1c	1A	1a
1D	1d	1A	1f
1C	1e	1c	1g
=325	=325	=325	=325
1F	1c	1A	1a
1.BB-	1.d	1.B-	1.f
2BB-/	2d\	2B-\	2f/
=326	=326	=326	=326
1D	1d	1A	1f
0AA	0c#i	0A	0e
=327	=327	=327	=327
0D	0d	0F	0d
1r	1r	1A	1r
=328	=328	=328	=328
1D	0.r	1A	0.r
1D	.	1B-	.
1E-i	.	1G	.
=329	=329	=329	=329
1C	0.r	0A	0.r
0D	.	.	.
.	.	1F	.
=330	=330	=330	=330
1BB-	0.r	1.G	0.r
1.C	.	.	.
.	.	2G/	.
.	.	1A	.
2C/	.	.	.
=331	=331	=331	=331
0D	1r	0.r	1.a
.	1d	.	.
.	.	.	2a/
1r	1d	.	1b-
=332	=332	=332	=332
0.r	1e-i	0.r	1g
.	1c	.	1a
.	1d	.	1f
=333	=333	=333	=333
0.r	1B-	1r	1.g
.	1.c	1r	.
.	.	.	2g/
.	.	1A	1a
.	2c\	.	.
=334	=334	=334	=334
1D	1d	1A	1f
1D	1d	1A	1f
1D	1d	[1B-	1f
=335	=335	=335	=335
0E-i	1B-	1B-]	0g
.	1B-	1G	.
1C	1c	1G	1e
=336	=336	=336	=336
1C	1c	0A	1e
0D	0A	.	1.f
.	.	1D	.
.	.	.	2d/
=337	=337	=337	=337
1GG	0B-	1r	0d
1r	.	1d	.
1G	1r	1d	1r
=338	=338	=338	=338
1G	0.r	0d	0.r
0G	.	.	.
.	.	1B-	.
=339	=339	=339	=339
1E	0.r	1.c	0.r
1.F	.	.	.
.	.	2c\	.
.	.	1d	.
2F\	.	.	.
=340	=340	=340	=340
0G	1r	0.r	1r
.	1r	.	1dd
1r	1g	.	1dd
=341	=341	=341	=341
0.r	1g	0.r	0dd
.	0g	.	.
.	.	.	1b-
=342	=342	=342	=342
0.r	1e	1r	1.cc
.	1.f	1r	.
.	.	.	2cc\
.	.	1d	1dd
.	2f\	.	.
=343	=343	=343	=343
1r	0g	1e	1r
1r	.	1.g	1r
1G	1r	.	1b-
.	.	2f\	.
=344	=344	=344	=344
1G	1g	1e	1b-
0G	1g	0d	0b-
.	1g	.	.
=345	=345	=345	=345
0A	0e	1c	0cc
.	.	1c	.
1F	1f	1c	1a
=346	=346	=346	=346
1F	1f	1.d	1a
1.G	1.d	.	1.b-
.	.	2B-\	.
.	.	1B-	.
2G\	2d\	.	2g/
=347	=347	=347	=347
1E	1e	1.c	1g
1.F	1c	.	1.a
.	.	2A/	.
.	1d	1A	.
2D\	.	.	2f/
=348	=348	=348	=348
*M2/1	*M2/1	*M2/1	*M2/1
*met(C|)	*met(C|)	*met(C|)	*met(C|)
0D	1d	1r	1f
.	1f	1A	1r
=349	=349	=349	=349
1BB-	1.f	1.B-	1dd
[1BB-	.	.	[1dd
.	2f\	2B-\	.
=350	=350	=350	=350
2BB-/]	0f	1B-	2dd\]
2BB-/	.	.	2dd\
1F	.	1c	1cc
=351	=351	=351	=351
1F	1f	1d	1a
1G	1d	1B-	1b-
=352	=352	=352	=352
1E	1e	1c	1g
1F	1c	[1A	1a
=353	=353	=353	=353
1.D	1.d	2A/]	1.f
.	.	2F/	.
.	.	1F	.
2BB-/	2d\	.	2d/
=354	=354	=354	=354
3%4BB-V	3%2dV	3%2rV	3%4dV
.	3%2f	3%2r	.
3%2B-Z	3%2dZ	3%2fZ	3%2ddZ
=355	=355	=355	=355
3%2GV	3%4eV	3%2gV	3%2b-V
3%4AZ	.	3%4eZ	3%2.cc
.	[3%2AZ	.	.
.	.	.	3a/Z
=356	=356	=356	=356
3%4DV	3%2A]V	3%4fV	3%4aV
.	3%2d	.	.
3%2GZ	3%2B-Z	3%2dZ	3%2b-Z
=357	=357	=357	=357
3%2E-V	3%4cV	3%2e-iV	3%2gV
3%4FZ	.	3%4cZ	3%2.a
.	[3%2FZ	.	.
.	.	.	3f/Z
=358	=358	=358	=358
3%4BB-V	3%2F]V	3%4dV	3%4fV
.	3%2B-	.	.
3%2E-Z	3%2GZ	3%2B-Z	3%2gZ
=359	=359	=359	=359
3%2CV	1A	3%2cV	3%2eV
3%4DZ	.	3%4AZ	3%4fZ
.	1D	.	.
=360	=360	=360	=360
0GG	2r	1G	1g
.	2G/	.	.
.	2B-\	1r	2r
.	2G/	.	2g/
=361	=361	=361	=361
1r	2.g\	1G	2b-\
.	.	.	2g/
.	4g\	.	.
1GG	1g	2B-\	[1dd
.	.	2G/	.
=362	=362	=362	=362
2BB-/	0r	1.d	2dd\]
2GG/	.	.	2dd\
[1G	.	.	1dd
.	.	2d\	.
=363	=363	=363	=363
2G\]	2g\	1d	2b-\
2G\	2g\	.	2b-\
1G	2g\	1r	2b-\
.	2g\	.	2b-\
=364	=364	=364	=364
0r	2e\	0r	1cc
.	1f	.	.
.	.	.	[1dd
.	2d\	.	.
=365	=365	=365	=365
2G\	1d	2B-\	2dd\]
2G\	.	2B-\	2dd\
2G\	1r	2B-\	1dd
2G\	.	2B-\	.
=366	=366	=366	=366
2E\	0r	1c	0r
1F	.	.	.
.	.	[1d	.
2D\	.	.	.
=367	=367	=367	=367
0D	1r	2d\]	0r
.	.	2d\	.
.	1f	1d	.
=368	=368	=368	=368
1G	1g	2d\	1b-
.	.	1e	.
1A	1e	.	1cc
.	.	2c\	.
=369	=369	=369	=369
2F\	1f	2c\	2a/
2D\	.	1d	2a/
1G	2d\	.	1b-
.	[2g\	2B-\	.
=370	=370	=370	=370
1E-	4g\]	2B-\	1g
.	4f\	.	.
.	4e-i\	2.c\	.
.	4d\	.	.
2C/	2e-i\	.	2g/
.	.	4B-\	.
[2F\	2c\	4A/	[2a/
.	.	4G/	.
=371	=371	=371	=371
4F\]	1.d	1A	4a/]
4E-i\	.	.	4g/
4D\	.	.	4f/
4C/	.	.	4e/
2D\	.	1A	2f#i/
2D\	2d\	.	2f#i/
=372	=372	=372	=372
1GG	0d	0G	0g
1r	.	.	.
=373	=373	=373	=373
*M3/1	*M3/1	*M3/1	*M3/1
*met(3)	*met(3)	*met(3)	*met(3)
1G	0.r	1B-	0.r
1G	.	1B-	.
1G	.	1B-	.
=374	=374	=374	=374
0A	0.r	0c	0.r
1F	.	1A	.
=375	=375	=375	=375
1D	0.r	1F	0.r
1E-	.	1G	.
1C	.	1A	.
=376	=376	=376	=376
0BB-	1r	0B-	1r
.	1r	.	1r
1BB-	1d	1B-	1f
=377	=377	=377	=377
1BB-	1d	1B-	1f
1.E-i	1.B-	1.G	1.g
2E-\	2B-\	2G/	2g/
=378	=378	=378	=378
1C	1c	1e-	1g
0D	0A	0d	0f#i
=379	=379	=379	=379
*M2/1	*M2/1	*M2/1	*M2/1
*met(C|)	*met(C|)	*met(C|)	*met(C|)
2GG/	1G	1B-	2g/
1G	.	.	1b-
.	2d\	2B-\	.
2G\	2d\	2B-\	2b-\
=380	=380	=380	=380
1G	1d	1B-	1b-
1D	1d	1f	1a
=381	=381	=381	=381
2G\	2d\	2B-\	2b-\
2F\	2d\	2f\	2a/
2G\	2B-\	2d\	2b-\
2E\	2c\	2e\	2g/
=382	=382	=382	=382
2D\	2d\	2f\	2a/
1G	2B-\	2d\	2b-\
.	1e-	[1g	2b-\
2C/	.	.	[2cc\
=383	=383	=383	=383
1G	2d\	2g\]	4cc\]
.	.	.	4b-\
.	2B-\	2d\	1b-
1F	1c	2.f\	.
.	.	.	2a/
.	.	4e\	.
=384	=384	=384	=384
1BB-	1B-	1d	1b-
2r	[1d	1r	2r
[2B-\	.	.	[2dd\
=385	=385	=385	=385
4B-\]	2d\]	2B-\	4dd\]
4A\	.	.	4cc\
2G\	2d\	2B-\	2b-\
2F\	2d\	2f\	2a/
2G\	2d\	2B-\	2b-\
=386	=386	=386	=386
2D\	2d\	2f\	2a/
2G\	2d\	2B-\	2b-\
2F\	2d\	2f\	2a/
2G\	2B-\	2d\	2b-\
=387	=387	=387	=387
1C	2.c\	1e-i	2a/
.	.	.	2.g/
.	4B-\	.	.
1D	1A	1d	.
.	.	.	4f#i/
.	.	.	4f#i/
.	.	.	4e/
=388	=388	=388	=388
[0GG	[0G	1B-	4g/
.	.	.	4a/
.	.	.	4b-\
.	.	.	4cc\
.	.	4G/	2dd\
.	.	4A/	.
.	.	4B-\	4g/
.	.	4c\	4a/
=389	=389	=389	=389
0GG]	0G]	2d\	4b-\
.	.	.	4cc\
.	.	4G/	1dd
.	.	4A/	.
.	.	4B-\	.
.	.	4c\	.
.	.	[2d\	4cc\
.	.	.	4b-\
=390	=390	=390	=390
1r	1r	2d\]	0a
.	.	4c\	.
.	.	4B-\	.
1D	1F	1A	.
=391	=391	=391	=391
2E\	2.G/	0r	0r
1G	.	.	.
.	4A/	.	.
.	4B-\	.	.
.	4c\	.	.
[2F\	[2d\	.	.
=392	=392	=392	=392
4F\]	2d\]	0r	0r
4E\	.	.	.
4D\	1c	.	.
4C/	.	.	.
1D	.	.	.
.	2B-\	.	.
=393	=393	=393	=393
2C/	2c\	1r	1r
2E\	2G/	.	.
1D	1A	2r	1f
.	.	2d\	.
=394	=394	=394	=394
0r	0r	2e\	2.g/
.	.	1g	.
.	.	.	4a/
.	.	.	4b-\
.	.	.	4cc\
.	.	[2f\	[2dd\
=395	=395	=395	=395
0r	0r	4f\]	4dd\]
.	.	4e\	4cc\
.	.	4d\	1cc
.	.	4c\	.
.	.	1d	.
.	.	.	2bni\
=396	=396	=396	=396
1.C	1r	1c	0cc
.	[1G	[1e-	.
2C/	.	.	.
=397	=397	=397	=397
1C	2G/]	2e-\]	2.g/
.	2G/	2e-i\	.
.	.	.	4a/
1GG	2G/	1d	2b-\
.	2G/	.	2b-\
=398	=398	=398	=398
1C	1E	1c	2cc\
.	.	.	4g/
.	.	.	4a/
2r	2r	1B-	4b-\
.	.	.	4cc\
2GG/	2G/	.	[2dd\
=399	=399	=399	=399
2AA/	2.E/	2.c\	4dd\]
.	.	.	4cc\
2C/	.	.	1cc
.	4F/	4e-i\	.
2GG/	1G	1d	.
4G\	.	.	2bni\
4F\	.	.	.
=400	=400	=400	=400
4E-i\	0C	0c	1cc
4D\	.	.	.
1C	.	.	.
.	.	.	2.g/
4BB-/	.	.	.
4AA/	.	.	4a/
=401	=401	=401	=401
0GGl	0Gl	0dl	0b-l
==	==	==	==
*-	*-	*-	*-
!!!RDF**kern: V=start of tuplet marker
!!!RDF**kern: Z=end of tuplet marker
!!!RDF**kern: l=long note in original notation
!!!RDF**kern: i=editorial accidental
!!!ENC:	Joel Chapman 2011/12/23
!!!END:	2011/12/23/
!!!EED:	Jesse Rodin
!!!EEV:	2012/01/22/
!!attribution-level@Jos: 4 (questionable)
!!!ONB:	Translated from MusicXML and edited on 2012/01/22/ by Craig Sapp
!!muse2ps: u^(2) @{OTL2}, (3) @{OTL3}^C^@{COA}?\n@{SCT}^i2I150v90,90,90,150Q16
